Themes/OneUI/assets/svg/sec_ic_settings_wallpaper.svg

<?xml version="1.0" encoding="UTF-8" standalone="no"?>
<svg
   width="28.000021"
   height="28.000021"
   viewBox="0 0 28.000021 28.000021"
   fill="none"
   version="1.1"
   id="svg2255"
   sodipodi:docname="sec_ic_settings_wallpaper.svg"
   xmlns:inkscape="http://www.inkscape.org/namespaces/inkscape"
   xmlns:sodipodi="http://sodipodi.sourceforge.net/DTD/sodipodi-0.dtd"
   xmlns="http://www.w3.org/2000/svg"
   xmlns:svg="http://www.w3.org/2000/svg">
  <sodipodi:namedview
     id="namedview2257"
     pagecolor="#ffffff"
     bordercolor="#666666"
     borderopacity="1.0"
     inkscape:showpageshadow="2"
     inkscape:pageopacity="0.0"
     inkscape:pagecheckerboard="0"
     inkscape:deskcolor="#d1d1d1" />
  <g
     clip-path="url(#clip0_1_1329)"
     id="g2248">
    <path
       d="M 24.856,3.14401 C 23.13,1.52161 20.7739,0.601214 18.1738,0.256914 15.6907,-0.072186 14,0.00881404 14,0.00881404 c 0,0 -1.691,-0.08100004 -4.17421,0.24809996 -2.6,0.3443 -4.956,1.264696 -6.6815,2.887096 -1.6228,1.7258 -2.543099,4.0819 -2.887599,6.6819 -0.3291004,2.48299 -0.2478004,4.17399 -0.2478004,4.17399 0,0 -0.0813,1.6908 0.2478004,4.174 0.3445,2.5998 1.264799,4.9561 2.887399,6.6819 1.7257,1.6226 4.0817,2.5428 6.6817,2.8875 C 12.309,28.0722 14,27.9912 14,27.9912 c 0,0 1.6907,0.081 4.1738,-0.2479 2.6001,-0.3447 4.9562,-1.2649 6.6818,-2.8875 1.623,-1.7258 2.5432,-4.0821 2.8877,-6.6819 0.3289,-2.4832 0.2479,-4.174 0.2479,-4.174 0,0 0.081,-1.691 -0.2479,-4.17399 -0.3445,-2.6 -1.2647,-4.9561 -2.8873,-6.6819 z"
       fill="#f47b9d"
       id="path2244" />
    <path
       d="m 10.6826,10.3856 c 0,-0.70685 0.5729,-1.28065 1.2806,-1.28065 0.7067,0 1.2796,0.5738 1.2796,1.28065 0,0.7067 -0.5729,1.2796 -1.2796,1.2796 -0.7077,0 -1.2806,-0.5729 -1.2806,-1.2796 z m 8.3591,9.1822 c 0,0.4675 -0.429,0.8489 -0.9552,0.8489 h -8.173 c -0.0972,0 -0.9552,-0.0174 -0.9552,-0.6197 v -3.003 l 1.7261,-1.7398 c 0.1824,-0.1705 0.4767,-0.1687 0.6545,0.0055 l 1.3374,1.3044 c 0.1788,0.1751 0.4703,0.1741 0.6481,0 l 3.3752,-3.3083 c 0.1787,-0.1741 0.4656,-0.1714 0.6407,0.0065 l 1.7014,1.7911 z M 7.5833,8.43305 V 19.797 c 0,1.2283 1.0432,1.9947 2.3302,1.9947 h 8.173 c 1.2861,0 2.3302,-0.9955 2.3302,-2.2239 V 8.43305 c 0,-1.2283 -1.0441,-2.2248 -2.3302,-2.2248 h -8.173 c -1.287,0 -2.3302,0.9965 -2.3302,2.2248 z"
       fill="#ffffff"
       id="path2246" />
  </g>
  <defs
     id="defs2253">
    <clipPath
       id="clip0_1_1329">
      <rect
         width="28"
         height="28"
         fill="#ffffff"
         id="rect2250"
         x="0"
         y="0" />
    </clipPath>
  </defs>
</svg>

<svg width="28" height="28" viewBox="0 0 28 28" fill="none" xmlns="http://www.w3.org/2000/svg">
<g clip-path="url(#clip0_1_1329)">
<path d="M24.856 3.14401C23.13 1.52161 20.7739 0.601214 18.1738 0.256914C15.6907 -0.072186 14 0.00881404 14 0.00881404C14 0.00881404 12.309 -0.072186 9.82579 0.256914C7.22579 0.601214 4.86979 1.52161 3.14429 3.14401C1.52149 4.86981 0.601191 7.22591 0.256691 9.82591C-0.0724094 12.3089 0.0088906 13.9999 0.0088906 13.9999C0.0088906 13.9999 -0.0724094 15.6907 0.256691 18.1739C0.601191 20.7737 1.52149 23.13 3.14409 24.8558C4.86979 26.4784 7.22579 27.3986 9.82579 27.7433C12.309 28.0722 14 27.9912 14 27.9912C14 27.9912 15.6907 28.0722 18.1738 27.7433C20.7739 27.3986 23.13 26.4784 24.8556 24.8558C26.4786 23.13 27.3988 20.7737 27.7433 18.1739C28.0722 15.6907 27.9912 13.9999 27.9912 13.9999C27.9912 13.9999 28.0722 12.3089 27.7433 9.82591C27.3988 7.22591 26.4786 4.86981 24.856 3.14401Z" fill="#F47B9D"/>
<path d="M10.6826 10.3856C10.6826 9.67875 11.2555 9.10495 11.9632 9.10495C12.6699 9.10495 13.2428 9.67875 13.2428 10.3856C13.2428 11.0923 12.6699 11.6652 11.9632 11.6652C11.2555 11.6652 10.6826 11.0923 10.6826 10.3856ZM19.0417 19.5678C19.0417 20.0353 18.6127 20.4167 18.0865 20.4167H9.9135C9.8163 20.4167 8.9583 20.3993 8.9583 19.797V16.794L10.6844 15.0542C10.8668 14.8837 11.1611 14.8855 11.3389 15.0597L12.6763 16.3641C12.8551 16.5392 13.1466 16.5382 13.3244 16.3641L16.6996 13.0558C16.8783 12.8817 17.1652 12.8844 17.3403 13.0623L19.0417 14.8534V19.5678ZM7.5833 8.43305V19.797C7.5833 21.0253 8.6265 21.7917 9.9135 21.7917H18.0865C19.3726 21.7917 20.4167 20.7962 20.4167 19.5678V8.43305C20.4167 7.20475 19.3726 6.20825 18.0865 6.20825H9.9135C8.6265 6.20825 7.5833 7.20475 7.5833 8.43305Z" fill="white"/>
</g>
<defs>
<clipPath id="clip0_1_1329">
<rect width="28" height="28" fill="white"/>
</clipPath>
</defs>
</svg>
